X: 33670
T: Rambling Pitchfork, The
R: jig
M: 6/8
K: Dmajor
|:F2F AFF|dFF AFD|G2A B2g|fed cAG|
F2F AFF|dFF AFD|G2A BAB|AFD D3:|
d2e f2d|ecA AFA|d2e f2g|agf gfe|
d2e f2d|ecA AFA|G2A BAB|AFD D3|
d2e f2d|ecA AFA|d2e f2g|agf gfe|
agf g2e|fge dAF|G2A BAB|AFD D3||

